X:399
T:Woodland Revels
R:polka 48
C:Trad. ed. Barry Callaghan
S:'Hard Core English' page 70
O:England
B:Hard Core English ISBN 978 085418 201 5
Z:PJHeadford 2008
M:4/4
L:1/8
Q:1/4=200
K:G
E3c B4|E3c B4|c2c2 e2c2|B8|E3c B4|E3c B4|A2B2 c2^c2|d4 D4|
E3c B4|E3c B4|c2c2 e2c2|B8|c2c2 B4|c2c2 B4|BcBA G2F2|E4 D4|
G3e d4|G3e d4|B2B2 c2B2|A2e2 e4|A3B c4|A3B c4|c2c2 B2A2|G2e2 d4|
B3c d4|GBde d4|B2B2 c2B2|A2e2 e4|\
e2c2 e2c2|d2B2 d2B2|dcBA GFGA|B2d2 g2fe||
d2d4 ^cd|e2d2 B2G2|EG2E G2A2|B8|d2d4 ^cd|e2d2 B2G2|EA2E A2B2|A2G2 E2D2|
d2d4 ^cd|e2d2 B2G2|EG2E G2A2|B6 d2|e3e f2e2|d2B2 G2d2|e4 f4|g8|]
W:Still looking for the author of this one, which turned up in
W:the repertoire of the Tadley Band in Hampshire in 1924.

